X:1
T:Via Pacis, 66.66.88
T:Joseph Barnby, 1889
T:Via Pacis, 66.66.88
T:Public Domain
C:Joseph Barnby, 1889
Z:Public Domain
%%score ( 1 2 ) ( 3 4 )
L:1/8
M:4/4
K:D
V:1 treble 
V:2 treble 
V:3 bass 
V:4 bass 
V:1
 [DF]2 [DF][DF] [=CA]3 [CA] | [B,G]6 [A,F]2 | [CE]2 D2 [DE]2 [DE]2 | [DF]6 [DF]2 | %4
 [FB]3 [FB] [FA]2 [^E^G]2 | F2 [^E^G]2 [FA]2 [Fd]2 | [Ec]4 [DB]4 | [CA]6 A2 | %8
 [Ae]2 [Ac]2 [Ad]2 F2 | [Fc]2 [F^A]2 [FB]2 [D=A]2 | [DG]2 [DF]2 [DE]2 [DB]2 | D4 [CE]4 | D8 |] %13
V:2
 x8 | x8 | x8 | x8 | x8 | F2 x6 | x8 | x6 A2 | x8 | x8 | x8 | D4 x4 | D8 |] %13
V:3
 [D,A,]2 [D,A,][D,A,] [D,F,]3 [D,F,] | [D,G,]6 [D,A,]2 | [A,,G,]2 [B,,F,]2 [G,,B,]2 [A,,A,]2 | %3
 [D,A,]6 [D,A,]2 | [B,,D]3 [B,,D] [C,C]2 [B,C]2 | [A,C]2 [^G,B,]2 [F,A,]2 [B,,A,]2 | %6
 (A,2 F,2) [E,^G,]4 | A,6 A,2 | [G,C]2 [A,E]2 [F,D]2 F,2 | [E,^A,]2 [F,C]2 [D,B,]2 [=C,F,]2 | %10
 [B,,G,]2 [A,,A,]2 [G,,B,]2 [G,,E,]2 | [A,,F,]4 [A,,G,]4 | [D,F,]8 |] %13
V:4
 x8 | x8 | x8 | x8 | x8 | x8 | E,4 x4 | A,6 A,2 | x8 | x8 | x8 | x8 | x8 |] %13

